!!!SOCIAL_FUNCTION:	songs connected with legends
!!!PDT:	1929
!!!OTL: No_39_Song_to_Make_the_Boy_Invisible.krn
!!!REG: Southwest
!!!LANG: Non-Tone
!!!LING_GROUP: Uto-Aztecan
**kern
*staff1
=1-
*clefF4
*k[b-e-]
*M2/4
16B-\LK
8.B-\J
8c\L
8B-\J
=2
8.A\L
16G\Jk
8G\L
8G\J
=3
4G\
8G\
8r
=4
16B-\LK
8.B-\J
8c\L
8B-\J
=5
8.A\L
16G\Jk
8G\L
8G\J
=6||
*M3/4
4G\
8G\
8r
8E-\L
8E-\J
=7
8G\L
8G\J
8.A\L
16G\Jk
8G\L
8G\J
=8||
*M2/4
4G\
8A\L
8G\J
=9
16G\LK
8.G\J
8G\L
8G\J
=10||
*M3/4
8G\L
8D\J
8E-\L
8E-\J
4r
=11
16G\LK
8G\
16G\Jk
4G\
8D\L
8G\J
=12
2.G\
==
*-
